src/assets/screen-share.svg

<svg fill="none" height="19" viewBox="0 0 24 19" width="24" xmlns="http://www.w3.org/2000/svg"><g stroke="#343440" stroke-linecap="round" stroke-width="1.5"><path d="m11.5455 16.9996h8.4545c1.1046 0 2-.8955 2-2v-10.9996c0-1.10457-.8954-2-2-2h-16c-1.10457 0-2 .89543-2 2v3.15611"/><path d="m2 9.50139c4.15584-.07161 7.27273 2.63191 7.27273 7.49841"/><path d="m2 11.3755c1.09091 0 5.45455.5623 5.45455 5.6248"/><path d="m2 13.2495c1.81818.0006 3.63636 1.2504 3.63636 3.7499"/></g></svg>

<svg width="24" height="19" viewBox="0 0 24 19" fill="none" xmlns="http://www.w3.org/2000/svg">
<path d="M11.5455 16.9996H20C21.1046 16.9996 22 16.1041 22 14.9996V4C22 2.89543 21.1046 2 20 2H4C2.89543 2 2 2.89543 2 4V7.15611" stroke="#343440" stroke-width="1.5" stroke-linecap="round"/>
<path d="M2 9.50139C6.15584 9.42978 9.27273 12.1333 9.27273 16.9998" stroke="#343440" stroke-width="1.5" stroke-linecap="round"/>
<path d="M2 11.3755C3.09091 11.3755 7.45455 11.9378 7.45455 17.0003" stroke="#343440" stroke-width="1.5" stroke-linecap="round"/>
<path d="M2 13.2495C3.81818 13.2501 5.63636 14.4999 5.63636 16.9994" stroke="#343440" stroke-width="1.5" stroke-linecap="round"/>
</svg>
